!!!SOCIAL_FUNCTION:	songs in honor of an individual
!!!PDT:	1918

Specific Region: Dakotas, Minnesota, Montana, Nebraska
!!!REG: Dakotas and Montana
!!!LING_GROUP: Siouan
!!!LANG: Tone
!!!OTL@ENG: The Poor Are Many
!!!ONM: No. 220
**kern
*Imale
*clefG2
*k[f#c#]
*M2/4
*MM72
8B
8B
=1
8a
8a
8.a
16f#
=2
16a
8.f#
8f#
8e
=3||
*M3/4
8d
16d
16d
4d
8.e
16e
=4
4a
4e
8.e
16d
=5||
*M2/4
16f#
8.d
8.d
16B
=6||
*M3/4
16B
8.B
2B
=7
8.B
16B
4d
8.d
16B
=8||
*M2/4
16d
8.d
8.d
16B
=9||
*M3/4
16B
8.B
2B
=10||
*M2/4
16B
8.B
4B
=11
16B
8.B
8.B
16B
=12||
*M3/4
2.B
=13
16f#
8.f#
16f#
8.e
(8.e
16d)
=14
16d
8.f#
16f#
8.e
(8.e
16d)
=15||
*M2/4
16f#
8.d
8.d
16B
=16||
*M3/4
16B
8.B
2B
=17
8.B
16B
4d
8.d
16B
=18||
*M2/4
16e
8.d
8.d
16B
=19||
*M3/4
16B
8.B
2B
=20||
*M2/4
16B
8.B
4B
=21
16B
8.B
4B
=22
4B
4r
==
*-
!!!CNT: Native American -- Sioux
!!!MRD: 1911/07//-1914///
!!!OCL: Frances Densmore
!!!YOR1: Teton Sioux Music, Bulletin 61,
!!!YOR2: Bureau of American Ethnology, Smithsonian Institution
!!!PPR: Government Printing Office
!!!PPP: Washington, D.C.
!!!PDT: 1918///
!!!ENC: Craig Stuart Sapp
!!!END: 2002/03/25/
!!!EEV: 2002/03/31/
!!!AGN: Song in Honor of an Individual
!!!MPN@@SIO: Toke'ya-wicha'o
!!!MPN@ENG: Shoots First
!!!TXO: Teton Sioux
!!!MLC: Standing Rock Reservation, South Dakota, United States of America
!!!ARL: 45.9/-100.7#
!!!catalog: Catalogue No. 640
!!!PPG: 498
!!!EFL: 225/245
!!!VTS: 1874530856
